X:806
T:Whirligig
C:John Playford, 1651
S:Colin Hume's website,  colinhume.com  - chords can also be printed below the stave.
Q:3/8=120
M:6/8
L:1/8
K:F
%%center To the tune "Woodicock" (various spellings)
%%textfont Times-Roman-Bold 20
%%center Play (A BB A BB A BB A) x 3
P:A
"Dm"d2 d f>ed | "Am"c2 A c2 c | "Dm"d2 d f>ed | "Am"cAA A3 |\
"Bb"d2 d f>ed | "F"c2 A c2 c | "Bb"d2 d f>ed | "Am"cAA A2 ||
P:B
|:d | "F"c2 B c>BA | "Gm"BGG G2 G | "Am"AAA A>Bc | "Dm"dDD D2 d |\
"F"c2 B c>BA | "Gm"BGG G2 G | "Am"AAA A>Bc | "Dm"dDD D2 :|

